X:1
T:Attend mine humble prayer
T:Domine exaudi, Psal.143.
T:William Byrd (c.1540-1623)
T:Attend mine humble prayer Domine exaudi, Psal.143.
T:© Choral Public Domain Library 2010
T:© Choral Public Domain Library 2010
T:© Choral Public Domain Library 2010
T:© Choral Public Domain Library 2010
C:William Byrd (c.1540-1623)
Z:© Choral Public Domain Library 2010
%%score [ 1 2 3 ]
L:1/8
M:4/2
K:F
V:1 treble nm="Soprano" snm="S."
V:2 treble nm="Alto" snm="A."
V:3 treble-8 transpose=-12 nm="Tenor" snm="T."
V:1
 [A,g]2 | z16 | z16 | z8 z4 A4- | A4 c8 A4 | B4 c4 d4 B4 | A8 z8 | z8 A8 | c4 =B8 A4- | %9
w: |||At-|* tend mine|hum- ble pray- er|Lord,|with|thine at- ten-|
 A4 ^G4 A8- | A8 z8 | G8 B4 A4- | A4 G8 ^F4 | G8 z4 G4- | G4 A8 B4 | G8 z4 A4- | A4 =B8 c4 | %17
w: * tive ear,|_|with thine at-|* ten- tive|ear, even|_ in thy|truth, even|_ in thy|
 A8 G8 | A4 F4 c8 | z4 B4 A8 | F4 A8 G2 F2 | E8 z8 | z8 z4 c4 | =B8 G4 B4- | B4 A2 G2 ^F8 | %25
w: truth and|jus- tice Lord,|vouch- safe|my suit to _|hear,|vouch-|safe my suit|_ to _ hear.|
 z4 F8 A4- | A4 A4 A8 | A4 B8 A2 G2 | A8 z4 A4- | A4 d8 d4 | d16 | d8 _e8- | e4 d2 c2 d8- | %33
w: And in-|* to judge-|ment en- ter _|not, and|_ in- to|judge-|ment en-|* ter _ not,|
 d8 z4 d4- | d2 A2 B4 A4 F4 | A8 z4 A4- | A2 E2 F4 E4 A,4 | ^C8 E4 A4- | A2 G2 E4 ^F8- | F8 z8 | %40
w: _ with|_ thy poor ser- vant|here, with|_ thy poor ser- vant|here, poor ser-|* vant _ here,|_|
 z16 | z4 E8 A4- | A4 ^G4 A4 =B4 | c6 d2 =B4 z2 B2 | c6 A2 c4 =B4 | A8 z8 | z4 A8 d4- | %47
w: |be- cause|_ none shall be|jus- ti- fied, and|stand be- fore thee|clear,|be- cause|
 d4 ^c4 d4 e4 | f6 g2 e8 | z4 e4 f6 d2 | f4 e4 d8- | d8 z8 | z8 z4 D4- | D4 G8 F4 | G4 A4 B6 c2 | %55
w: _ none shall be|jus- ti- fied,|and stand be-|fore thee clear,|_|be-|* cause none|shall be jus- ti-|
 A16 | z4 A4 B6 G2 | B4 A4 G4 A4- | A4 d8 ^c4 | d8 z4 e4 | f6 d2 f4 e4 | d8 z8 | G4 B6 F2 A4- | %63
w: fied,|and stand be-|fore thee clear, be-|* fore thee|clear, and|stand be- fore thee|clear,|and stand be- fore|
 A4 G8 ^F4 | !fermata!G16 |] %65
w: _ thee _|clear.|
V:2
 [F,c]2 | D16 | F12 E4 | F4 G4 A4 F4 | E4 E4 F6 F2 | G4 E4 D4 D4 | F8 A,4 C4- | C4 =B,4 C4 D4 | %8
w: |At-|tend mine|hum- ble pray- er|Lord, mine hum- ble|pray- er Lord, at-|tend, at- tend|_ mine hum- ble|
 E8 C8 | =B,8 z4 A,4 | F4 E8 D4- | D4 ^C4 D6 =C2 | A,4 B,4 A,8 | G,16 | z8 z4 D4- | D4 E8 F4 | %16
w: pray- er|Lord, with|thine at- ten-|* tive ear, at-|ten- * tive|ear,|even|_ in thy|
 D8 z4 C4- | C4 F8 E4 | F8 z4 F4 | E4 D4 F6 E2 | D2 C2 D4 A,8- | A,8 z4 F4 | E8 C4 E4- | %23
w: truth and|_ jus- tice|Lord, vouch-|safe my suit to|_ _ _ hear,|_ vouch-|safe my suit|
 E4 D2 C2 =B,4 D4- | D4 ^C4 D8 | z4 D8 F4- | F4 F4 F8 | F8 G8- | G4 ^F2 E2 F8 | z4 F8 B4- | %30
w: _ to _ hear, to|_ _ hear.|And in-|* to judge-|ment en-|* ter _ not,|and in-|
 B4 F4 G4 F4- | F4 B8 A2 G2 | A8 z4 B4- | B2 F2 G4 F4 B,4 | F4 z2 F4 C2 D4 | C4 F,4 C8 | %36
w: * to judge- ment|_ en- ter _|not, with|_ thy poor ser- vant|here, with thy poor|ser- vant here,|
 z4 A6 E2 F4 | E4 A,4 ^C4 z2 D2 | E4 ^C4 D4 A,4- | A,4 D8 C4 | D4 E4 F6 G2 | E4 A,4 C6 A,2 | %42
w: with thy poor|ser- vant here, poor|ser- vant here, be-|* cause none|shall be jus- ti-|fied, and stand be-|
 C4 =B,4 A,4 D2 G2- | G2 ^FE F4 G4 D4 | E4 F4 E8 | A,4 D8 ^C4 | D4 E4 F6 G2 | E8 z4 G4 | %48
w: fore thee clear, be- fore|_ thee _ _ clear, be-|fore thee clear,|be- cause none|shall be jus- ti-|fied, and|
 A8 G4 c4- | c2 B2 A2 G2 A4 D2 D2- | D2 ^C=B, C4 D8 | z4 D8 G4- | G4 ^F4 G4 A4 | B6 c2 A8 | %54
w: stand be- fore|_ thee _ _ clear, be- fore|_ thee _ _ clear,|be- cause|_ none shall be|jus- ti- fied,|
 D4 F8 E4 | F8 D8 | A,8 G,8 | D4 D6 ^C=B, C4 | D8 z4 A,4 | B,6 G,2 B,4 A,4 | D8 z8 | D4 F6 C2 F4 | %62
w: and stand be-|fore thee|clear, be-|fore thee _ _ _|clear, and|stand be- fore thee|clear,|and stand be- fore|
 E4 D8 A,4 | C6 G,2 B,4 A,4 | !fermata!=B,16 |] %65
w: thee clear, and|stand be- fore thee|clear.|
V:3
 [Cg]2 | z4 G8 B4- | B4 A4 B4 c4 | d4 B4 A8- | A8 z8 | z8 z4 D4- | D4 F8 E4 | F4 G4 A4 F4 | E8 z8 | %9
w: |At- tend|_ mine hum- ble|pray- er Lord,|_|at-|* tend mine|hum- ble pray- er|Lord,|
 E8 F6 E2 | D4 C4 G6 F2 | E4 E4 D8- | D16 | z4 d8 e4- | e4 f4 d4 G4 | B4 c4 A8 | z4 G8 A4- | %17
w: with thine at-|ten- tive ear, at-|ten- tive ear,|_|even in|_ thy truth, even|in thy truth|and jus-|
 A4 F4 c8 | z4 B4 A4 F4 | G4 G4 D8 | z4 f4 e4 d2 d2- | d2 ^c=B c4 d8 | c4 A8 E4 | G16 | E8 D8- | %25
w: * tice Lord,|vouch- safe my|suit to hear,|vouch- safe my suit|_ to _ _ hear,|vouch- safe my|suit|to hear.|
 D8 z4 D4- | D4 d8 d4 | d4 d4 _e6 e2 | d16 | D8 B8- | B4 B4 B8 | B8 c8- | c4 F4 B8 | z4 B6 F2 G4 | %34
w: _ And|_ in- to|judge- ment en- ter|not,|and in-|* to judge-|ment en-|* ter not,|with thy poor|
 F4 D4 F8 | F8 F4 F4 | A16 | z4 z2 A4 E2 F4 | E4 A4 D8 | z4 D4 F8- | F4 G4 A4 =B4 | %41
w: ser- vant here,|poor ser- vant|here,|with thy poor|ser- vant here,|be- cause|_ none shall be|
 c6 =B2 A2 G2 F4 | E4 E4 F4 G4 | A4 A4 G8 | z8 z4 E4 | F6 D2 F4 E4 | D4 ^C4 D4 D4 | %47
w: jus- ti- * * *|fied, and stand be-|fore thee clear,|and|stand be- fore thee|clear, be- fore thee|
 A4 z2 A2 B4 c4 | F3 G A2 B2 c6 B2 | A2 G2 c4 F4 B4 | A4 z2 A2 B6 G2 | B6 A2 G2 A2 B2 c2 | %52
w: clear, and stand be-|fore thee _ _ clear, be-|fore _ _ _ thee|clear, and stand be-|fore _ _ _ _ _|
 B2 G2 A4 G4 ^F4 | G4 G4 d6 c2 | B4 A4 G8 | z4 D8 d4- | d4 c4 d4 e4 | f6 g2 e4 z2 e2 | %58
w: _ _ thee clear, and|stand be- fore _|_ thee clear,|be- cause|_ none shall be|jus- ti- fied, and|
 f6 d2 f4 e4 | d8 z8 | D4 B8 G4 | B8 F4 A4 | G8 D4 F4- | F2 C2 _E4 D8 | !fermata!G16 |] %65
w: stand be- fore thee|clear,|and stand be-|fore thee _|clear, and stand|_ be- fore thee|clear.|

